icon-themes/sifr_svg/cmd/lc_glueeditmode.svg

<svg viewBox="0 0 24 24" xmlns="http://www.w3.org/2000/svg"><path d="m14 1-2 2.9179688v.0820312c4.471332.00091 7.937156 2.70583 9 7l1-2v-8zm-2 4-.574219 5.175781a2.2776234 2.381891 0 0 0 -1.425781 2.207031 2.2776234 2.381891 0 0 0 2.277344 2.38086 2.2776234 2.381891 0 0 0 2.11914-1.519531l5.603516-1.244141c0-3.96526-3.308779-7-8-7zm-2.1464844 9.984375c-.6812491.064335-3.5512299.920483-4.6816406 4.412109-1.703391 5.26146 9.483745 4.455453 6.230469-.435546-1.4288581-2.148161-1.402344-3.960938-1.402344-3.960938.003474-.017726-.0491631-.024816-.1464844-.015625z" fill="#555753"/></svg>

<svg xmlns="http://www.w3.org/2000/svg" viewBox="0 0 24 24">
 <path
     style="fill:#555753"
     d="M 14 1 L 12 3.9179688 L 12 4 C 16.471332 4.00091 19.937156 6.70583 21 11 L 22 9 L 22 1 L 14 1 z M 12 5 L 11.425781 10.175781 A 2.2776234 2.381891 0 0 0 10 12.382812 A 2.2776234 2.381891 0 0 0 12.277344 14.763672 A 2.2776234 2.381891 0 0 0 14.396484 13.244141 L 20 12 C 20 8.03474 16.691221 5 12 5 z M 9.8535156 14.984375 C 9.1722665 15.04871 6.3022857 15.904858 5.171875 19.396484 C 3.468484 24.657944 14.65562 23.851937 11.402344 18.960938 C 9.9734859 16.812777 10 15 10 15 C 10.003474 14.982274 9.9508369 14.975184 9.8535156 14.984375 z "
     />
 </svg>
